X:1
T:Pas moyen d's'arrter pour respirer
C:Jean Blanchard, "Beau temps sur la province". Fichier ABC par Bernard Loffet
L:1/8
Q:350
M:2/2
K:C
|: [A2A,,2][A2A,2] [E2A,,2]A,A | [B2G,,2][c2G,2] [B2E,,2][AA,]G | [A2A,,2][A2A,2] [E2A,,2]A,A | \
|1 [B2G,,2][c2G,2] [B2E,,2]E,2 :|2 [B2G,,2][c2G,2] [B2E,,2][dE,]d |: [d2D,,2][cD,]B [c2F,,2]F,B | \
 [A2F,,2][G2F,2] [E2E,,2][dE,]d | [d2D,,2][cD,]B [c2F,,2][B2F,2] |1 [G2G,,2]G,2 [A2A,,2][dA,]d :|2 [G2G,,2]G,2 [A2A,,2]A,2 | \
W:Created with TablEdit http://www.tabledit.com/ by Bernard Loffet
